X:3837
T:Danza d'El Carmen y San Pedro
R:Danza
C:Tradicional. Recoyío de Clemente Díaz
S:Música Tradicional Asturiana, (C) Tello & Tito. Asturies, 2001.
S:http://pagina.de/MusTradAst <telloytito@asturies.org>
N:"El Carmen" (La Villa) y "San Pedro" (Uñón)
A:Asturies
G:Arrg.
Z:Revista Asturies
E:2 Voces
M:2/4
L:1/8
Q:1/4=110
K:Dm
V:1
|D2 FA|A2 G^F|GG A2|BA G2|FEDD|
z4|z4|z4|z4|z4|
|D2 FA|A2 G^F|GG z2|z4|z4|
|D2 FA|A2 G^F|GG z2|z4|z4|
|D2 FA|A2 G^F|GG A2|BA G2|FEDD|
z4|z4|z4|z4|z4|
|D2 FA|A2 G^F|GG z2|z4|z4|
|D2 FA|A2 G^F|GG z2|z4|z4|
V:2
z4|z4|z4|z4|z4|
|D2 FA|A2 G^F|GG A2|BA G2|FEDD|
z4|z4|z2 A2|BA G2|FEDD|
z4|z4|z2 A2|BA G2|FEDD|
z4|z4|z4|z4|z4|
|D2 FA|A2 G^F|GG A2|BA G2|FEDD|
z4|z4|z2 A2|BA G2|FEDD|
z4|z4|z2 A2|BA G2|FEDD|


